X: 10500
T: Doodley Doodley Dank
R: slip jig
M: 9/8
K: Dmajor
BdB {c}BAB g2 A|BdB {c}B2 e dBG|BdB {c}BAB gbg|faf ege dBA:|
fdd def {ga}g2 e|fdd {e}dcd eAA|fdd def {ga}g2 e|fed efe {f}efg:|

